images/icons/add-folder-icon.svg

<svg width="91px" height="91px" viewBox="0 0 91 91" version="1.1" xmlns="http://www.w3.org/2000/svg" xmlns:xlink="http://www.w3.org/1999/xlink">
    <!-- Generator: Sketch 50.2 (55047) - http://www.bohemiancoding.com/sketch -->
    <desc>Created with Sketch.</desc>
    <defs>
        <circle id="path-1" cx="42.5" cy="42.5" r="42.5"></circle>
        <filter x="-5.9%" y="-4.7%" width="111.8%" height="111.8%" filterUnits="objectBoundingBox" id="filter-2">
            <feOffset dx="0" dy="1" in="SourceAlpha" result="shadowOffsetOuter1"></feOffset>
            <feGaussianBlur stdDeviation="1.5" in="shadowOffsetOuter1" result="shadowBlurOuter1"></feGaussianBlur>
            <feColorMatrix values="0 0 0 0 0   0 0 0 0 0   0 0 0 0 0  0 0 0 0.3 0" type="matrix" in="shadowBlurOuter1"></feColorMatrix>
        </filter>
    </defs>
    <g id="Wireframes---Desktop" stroke="none" stroke-width="1" fill="none" fill-rule="evenodd">
        <g id="Dash---My-Vault---My-Files" transform="translate(-1108.000000, -802.000000)">
            <g id="Add-Folder/Document-Button" transform="translate(1111.000000, 804.000000)">
                <g id="Oval-4">
                    <use fill="black" fill-opacity="1" filter="url(#filter-2)" xlink:href="#path-1"></use>
                    <use fill="#01AA50" fill-rule="evenodd" xlink:href="#path-1"></use>
                </g>
                <path d="M60.668872,29.7183438 L40.6725487,29.7183438 L34.9244887,25.5519983 C34.7444248,25.3779299 34.4450966,25.3214117 34.2065799,25.3214117 L24.3898111,25.3191489 C22.4137659,25.3191489 20.7978723,26.8812391 20.7978723,28.7914894 L20.7978723,56.5702128 C20.7978723,58.480463 22.4137659,60.0425532 24.3898111,60.0425532 L60.6085274,60.0425532 C62.5845727,60.0425532 64.2004662,58.480463 64.2004662,56.5702128 L64.2004662,33.1909447 C64.2612658,31.2806945 62.6453363,29.7186043 60.6693509,29.7186043 L60.668872,29.7183438 Z" id="Page-1" fill="#FFFFFF"></path>
                <polygon id="Fill-2" fill="#01AA50" points="42.9538457 54.0072819 43.914617 54.0072819 43.914617 45.9331138 51.9900149 45.9331138 51.9900149 44.9723426 43.914617 44.9723426 43.914617 36.8969447 42.9538457 36.8969447 42.9538457 44.9723426 34.8796777 44.9723426 34.8796777 45.9331138 42.9538457 45.9331138"></polygon>
            </g>
        </g>
    </g>
</svg>

<svg height="24" viewBox="0 0 24 24" width="24" xmlns="http://www.w3.org/2000/svg" xmlns:xlink="http://www.w3.org/1999/xlink"><defs><circle id="a" cx="42.5" cy="42.5" r="42.5"/><filter id="b" height="1.118" width="1.118" x="-.059" y="-.047"><feOffset dx="0" dy="1" in="SourceAlpha" result="shadowOffsetOuter1"/><feGaussianBlur in="shadowOffsetOuter1" result="shadowBlurOuter1" stdDeviation="1.5"/><feColorMatrix in="shadowBlurOuter1" type="matrix" values="0 0 0 0 0   0 0 0 0 0   0 0 0 0 0  0 0 0 0.3 0"/></filter></defs><g fill="none" fill-rule="evenodd" transform="matrix(.2550751 0 0 .2550751 1.1178103 .9606312)"><use fill="#000" filter="url(#b)" height="100%" width="100%" xlink:href="#a"/><use fill="#01aa50" fill-rule="evenodd" height="100%" width="100%" xlink:href="#a"/><path d="m60.668872 29.718344h-19.996323l-5.74806-4.166346c-.180064-.174068-.479392-.230586-.717909-.230586l-9.816769-.0023c-1.976045 0-3.591939 1.56209-3.591939 3.47234v27.778724c0 1.91025 1.615894 3.47234 3.591939 3.47234h36.218716c1.976046 0 3.591939-1.56209 3.591939-3.47234v-23.379231c.0608-1.910251-1.55513-3.472341-3.531115-3.472341z" fill="#fff"/><path d="m42.953846 44.972343h-8.074168v.960771h8.074168v8.074168h.960771v-8.074168h8.075398v-.960771h-8.075398v-8.075398h-.960771z" fill="#01aa50"/></g></svg>
